style-guide/assets/xd-icons-zoom-in.svg

<?xml version="1.0" encoding="UTF-8"?>
<svg width="24px" height="24px" viewBox="0 0 24 24" version="1.1" xmlns="http://www.w3.org/2000/svg" xmlns:xlink="http://www.w3.org/1999/xlink">
    <!-- Generator: Sketch 51.3 (57544) - http://www.bohemiancoding.com/sketch -->
    <title>zoom in</title>
    <desc>Created with Sketch.</desc>
    <defs>
        <path d="M22,2 L17,2 C16.447,2 16,2.447 16,3 C16,3.553 16.447,4 17,4 L21,4 L21,8 C21,8.553 21.447,9 22,9 C22.553,9 23,8.553 23,8 L23,3 C23,2.447 22.553,2 22,2 M7,20 L3,20 L3,16 C3,15.447 2.553,15 2,15 C1.447,15 1,15.447 1,16 L1,21 C1,21.553 1.447,22 2,22 L7,22 C7.553,22 8,21.553 8,21 C8,20.447 7.553,20 7,20 M7,2 L2,2 C1.447,2 1,2.447 1,3 L1,8 C1,8.553 1.447,9 2,9 C2.553,9 3,8.553 3,8 L3,4 L7,4 C7.553,4 8,3.553 8,3 C8,2.447 7.553,2 7,2 M22,15 C21.447,15 21,15.447 21,16 L21,20 L17,20 C16.447,20 16,20.447 16,21 C16,21.553 16.447,22 17,22 L22,22 C22.553,22 23,21.553 23,21 L23,16 C23,15.447 22.553,15 22,15" id="path-1"></path>
    </defs>
    <g id="zoom-in" stroke="none" stroke-width="1" fill="none" fill-rule="evenodd">
        <mask id="mask-2" fill="white">
            <use xlink:href="#path-1"></use>
        </mask>
        <use id="icons/24px/Zoom-In" fill="#000000" xlink:href="#path-1"></use>
    </g>
</svg>

<svg viewBox="0 0 24 24" xmlns="http://www.w3.org/2000/svg" xmlns:xlink="http://www.w3.org/1999/xlink">
  <path d="M22 2h-5a1 1 0 1 0 0 2h4v4a1 1 0 1 0 2 0V3a1 1 0 0 0-1-1M7 20H3v-4a1 1 0 1 0-2 0v5a1 1 0 0 0 1 1h5a1 1 0 1 0 0-2M7 2H2a1 1 0 0 0-1 1v5a1 1 0 1 0 2 0V4h4a1 1 0 1 0 0-2m15 13a1 1 0 0 0-1 1v4h-4a1 1 0 1 0 0 2h5a1 1 0 0 0 1-1v-5a1 1 0 0 0-1-1"/>
</svg>
